packages/icons/src/tasSwapRoute.svg

<svg  viewBox="0 0 33 33" fill="none" xmlns="http://www.w3.org/2000/svg">
<path d="M24.2652 4.93823L28.9328 8.40387M28.9328 8.40387L24.2652 11.8788M28.9328 8.40387H9.92689M9.92737 8.4083C7.1683 8.4083 4.93164 10.5942 4.93164 13.2908V15.4987" stroke="#0278D5" stroke-linecap="round" stroke-linejoin="round"/>
<path d="M9.59811 26.0222L4.93048 22.5566M4.93048 22.5566L9.59811 19.0817M4.93048 22.5566H14.4334H20.4584M28.9316 15.4617V16.5657V17.6697C28.9316 18.3382 28.7942 18.9754 28.5453 19.5556" stroke="#0278D5" stroke-linecap="round" stroke-linejoin="round"/>
<path d="M28.9772 31.4291H25.5675C25.501 31.4296 25.4352 31.4149 25.3751 31.3862C25.3151 31.3575 25.2623 31.3154 25.221 31.2632L23.0559 28.5542C23.0134 28.5009 22.9837 28.4386 22.9692 28.372C22.9547 28.3055 22.9557 28.2365 22.9721 28.1703L23.7956 24.8538C23.8115 24.7916 23.8405 24.7335 23.8807 24.6833C23.9208 24.6332 23.9713 24.5922 24.0285 24.5632L27.0805 23.0335C27.1419 23.0031 27.2094 22.9873 27.278 22.9873C27.3465 22.9873 27.4141 23.0031 27.4755 23.0335L30.5665 24.565C30.6251 24.5935 30.6767 24.6346 30.7173 24.6856C30.7579 24.7365 30.7866 24.7959 30.8013 24.8594L31.5875 28.1759C31.602 28.2405 31.6017 28.3075 31.5869 28.372C31.5721 28.4364 31.543 28.4968 31.5018 28.5486L29.3219 31.2651C29.2804 31.3165 29.2278 31.3579 29.1682 31.3863C29.1085 31.4146 29.0433 31.4293 28.9772 31.4291ZM25.5675 30.9726H28.9697L31.1404 28.2728L30.3578 24.9694L27.2798 23.4453L24.2391 24.9694L23.4174 28.2747L25.5675 30.9726Z" fill="#238FCF"/>
<path d="M31.1969 23.954L31.5844 23.6354L27.5059 21.6157V22.1262L31.1969 23.954Z" fill="#1BBFD3"/>
<path d="M22.2514 28.6997L21.7539 28.8096L24.599 32.3795L24.8226 31.9268L22.2514 28.6997Z" fill="#79BF43"/>
<path d="M27.0479 22.1282V21.6177L23.0234 23.6355L23.3998 23.9597L27.0479 22.1282Z" fill="#1BBFD3"/>
<path d="M23.1281 24.3284L22.7405 23.9949L21.6543 28.3622L22.1536 28.2523L23.1281 24.3284Z" fill="#1D4489"/>
<path d="M32.4062 28.2541L32.9037 28.3641L31.8696 23.9949L31.4746 24.3191L32.4062 28.2541Z" fill="#1D4489"/>
<path d="M32.3042 28.6997L29.7051 31.9324L29.9268 32.3851L32.8017 28.8096L32.3042 28.6997Z" fill="#79BF43"/>
<path d="M25.2333 32.1243L25.0098 32.5826H29.5131L29.2895 32.1243H25.2333Z" fill="#1BBFD3"/>
</svg>

<svg viewBox="0 0 33 33" fill="none" xmlns="http://www.w3.org/2000/svg"><path d="m24.265 4.938 4.668 3.466m0 0-4.668 3.475m4.668-3.475H9.927m0 .004c-2.759 0-4.995 2.186-4.995 4.883v2.208M9.598 26.022 4.93 22.557m0 0 4.668-3.475M4.93 22.557h15.528m8.474-7.095v2.208a4.77 4.77 0 0 1-.387 1.886" stroke="#0278D5" stroke-linecap="round" stroke-linejoin="round"/><path d="M28.977 31.43h-3.41a.439.439 0 0 1-.346-.167l-2.165-2.709a.444.444 0 0 1-.084-.384l.824-3.316a.452.452 0 0 1 .233-.29l3.052-1.53a.445.445 0 0 1 .395 0l3.09 1.531a.437.437 0 0 1 .235.294l.787 3.317a.443.443 0 0 1-.086.373l-2.18 2.716a.442.442 0 0 1-.345.164Zm-3.41-.457h3.403l2.17-2.7-.782-3.304-3.078-1.524-3.04 1.524-.823 3.306 2.15 2.698Z" fill="#238FCF"/><path d="m31.197 23.954.387-.319-4.078-2.02v.511l3.69 1.828Z" fill="#1BBFD3"/><path d="m22.251 28.7-.497.11 2.845 3.57.224-.453L22.25 28.7Z" fill="#79BF43"/><path d="M27.048 22.128v-.51l-4.025 2.018.377.324 3.648-1.832Z" fill="#1BBFD3"/><path d="m23.128 24.328-.387-.333-1.087 4.367.5-.11.974-3.924ZM32.406 28.254l.498.11-1.034-4.37-.395.325.931 3.935Z" fill="#1D4489"/><path d="m32.304 28.7-2.599 3.232.222.453 2.875-3.575-.498-.11Z" fill="#79BF43"/><path d="m25.233 32.124-.223.459h4.503l-.224-.459h-4.056Z" fill="#1BBFD3"/></svg>
